src/pos-icons/ethernet-cable-off.svg

<svg height="24" viewBox="0 0 24 24" width="24" xmlns="http://www.w3.org/2000/svg"><path d="m11 3h2v4h-2zm-3 1h2v4h4v-4h2v7h-3.18l-4.82-4.82zm12 16.72-1.27 1.28-4.73-4.73v4.73h-4v-8.73l-8-8 1.28-1.27z"/></svg>

<?xml version="1.0" encoding="UTF-8"?><!DOCTYPE svg PUBLIC "-//W3C//DTD SVG 1.1//EN" "http://www.w3.org/Graphics/SVG/1.1/DTD/svg11.dtd"><svg xmlns="http://www.w3.org/2000/svg" xmlns:xlink="http://www.w3.org/1999/xlink" version="1.1" id="mdi-ethernet-cable-off" width="24" height="24" viewBox="0 0 24 24"><path d="M11,3H13V7H11V3M8,4H10V8H14V4H16V11H12.82L8,6.18V4M20,20.72L18.73,22L14,17.27V22H10V13.27L2,5.27L3.28,4L20,20.72Z" /></svg>
